!!!!SEGMENT: pl-stab--st-a--006_anonim--urzad-zbawienia.krn
!!!cenid: 15xx:361
!!!COM: Anonim
!!!COM-rismid: pe30004985
!!!CDT:
!!!CNT:
!!!OTL: Urząd zbawienia
!!!PDT: 1586
!!!AGN: Sacred
!!!SMS-siglum: PL-STAb
!!!SMS-shelfmark: St A
!!!SMS-shelfwork: 006 W
!!!NIFC-rismid:
!!!URL-scan: http://staniatki.studiokropka.pl/mbp/#/item/429
!!!ONB-nifc:
!!!COM: Anonim
!!!CDT: 
!!!OTL@@POL: Urząd zbawienia ludzkiego
!!!TXO: Polish
!!!ODT:
!!!GTL: Hymnbook A
!!!ARL: Opactwo św. Wojciecha, Staniątki
!!!voices:	1
**kern	**text	**text	**text	**text	**text	**text	**text	**text
*[Canto]	*	*	*	*	*	*	*	*
*clefC1	*	*	*	*	*	*	*	*
*k[b-]	*	*	*	*	*	*	*	*
*f:	*	*	*	*	*	*	*	*
*Met4/2	*	*	*	*	*	*	*	*
=1-	=1-	=1-	=1-	=1-	=1-	=1-	=1-	=1-
2c/	U-	Pan	Pan-	Rze-	Pan-	Spraw-	Duch	We-
2e/	-rząd	Bóg	-na	-kącz	-na	-nie	Swię-	-szo-
2f/	zba-	w Troÿ -	od	zdro-	się	te-	-tÿ	-łe
2g/	-wię-	-czÿ	wie-	-wa	ste-	-go	na-	to
=2-	=2-	=2-	=2-	=2-	=2-	=2-	=2-	=2-
2a\	-nie	swię-	-ka	bądz	-go	wÿ -	-tÿch-	nąm
1g\	ludz-	-teÿ	przeÿ -	Ma-	zdu-	-słu-	-miast	spie-
2f/	-kie-	ra-	-rza-	-ri-	-mia-	-chaw-	s stą-	-wa-
=3-	=3-	=3-	=3-	=3-	=3-	=3-	=3-	=3-
1g\	-go,	-dził,	-na	-a	-ła,	-szÿ,	-pił	-nie
2e/	po-	ja-	Ar-	łas-	cze-	rze-	cia-	kto-
2e/	-trze-	-ko-	-chan-	-kiś	-go	-kła	-ło	-re
=4-	=4-	=4-	=4-	=4-	=4-	=4-	=4-	=4-
1f/	-bo-	-bÿ	-gio-	peł-	przed	An-	pa-	wspo-
1e/	-wał	cło-	-łem	-na	tÿm	-gio-	-nien-	-mi-
=5-	=5-	=5-	=5-	=5-	=5-	=5-	=5-	=5-
2d/	pil-	-wie-	o-	za-	nie-	-ło-	-skie	-ną-
1c/	-nię	-ka	-be-	-dna	-słÿ -	-wi	za-	-mÿ
2B-/	te-	zba-	-sła-	i-	-cha-	wsta-	-sło-	ni-
=6-	=6-	=6-	=6-	=6-	=6-	=6-	=6-	=6-
1c/	-go,	-wił,	-na,	-na,	-ła,	-wszÿ ,	-nił,	-nie,
2e/	bÿ	przesz	a-	Pan	wo-	słu-	przÿ-	na-
2e/	swoÿ	wcie-	-bÿ	Bog	-lą	-że-	-bÿ-	-swią-
=7-	=7-	=7-	=7-	=7-	=7-	=7-	=7-	=7-
1f/	u-	-le-	na	sto-	Bo-	-bni-	-tek	-sza
1d/	-pa-	-nie	to	-ba	-żą	-cza	szÿ-	Pan-
=8-	=8-	=8-	=8-	=8-	=8-	=8-	=8-	=8-
2e/	-dek	szÿ -	przÿ -	od	bÿ c	ia	-na	-no
1g\	na-	-na	-zwo-	stwo-	ba-	Pan	Bo-	Mi-
2f/	pra-	swe-	-le-	-rze-	-cze-	me-	-że-	.
=9-	=9-	=9	-=9-	=9-	=9-	=9-	=9-	=9-
1g\	-wił	-go,	-ła	-nia,	-ła	-go,	-go	-ła
!!LO:LB:g=original
2a\	czło-	Bo-	ma-	nie-	An-	stą-	ist-	modl
2g/	.	.	tka	.	.	-nze	.	sie
=10-	=10-	=10-	=10-	=10-	=10-	=10-	=10-	=10
1f/	-wie-	-ga	na-	-le-	-gio-	mi	nosc	za-
1e/	-ka	w Tróÿ -	-roÿ -	-kaÿ	-ło-	się	-zba-	na-
=11-	=11-	=11-	=11-	=11-	=11-	=11-	=11-	=11-
2.f/	grze-	-czÿ	-sze-	sie	-wi	we-	-wie-	-mi
4e/	.	.	-go	.	.	-dle	.	grzesz-
2d/	-szne-	je-	Bo-	-po-	przÿ -	sło-	-nia	-nÿ-
1c/	-go	-dÿ -	-ga	-zdro-	-zwo-	-wa	ludz	-mi
=12-	=12-	=12-	=12-	=12-	=12-	=12-	=12-	=12-
.	.	.	.	.	.	.	.	.
2B-/	zba-	-ne-	be-	-wie-	-le-	twe-	kie-	A-
0c/	-wił,	-go.	-ła.	-nia.	-ła.	-go.	-go.	-men.
==	==	==	==	==	==	==	==	==
*-	*-	*-	*-	*-	*-	*-	*-	*-
!!!GTL: Hymnbook A
!!!EFL:
!!!YEM: Creative Commons CC/BY/NC/SA 4.0
!!!ENC: Marcin Konik
!!!END: 2015-03-14
!!!ENC: Leszek Kubiak
!!!END: 2020-01-29
!!!EEV:
!!!ONB: Encoded in vim by Marcin Konik
!!!CharacterEncoding: utf-8
!!!RDF**kern: l=long note in original notation
!!!RDF**kern: i=editorial accidental
!!muse2ps: z14jc180F
!!title: @{OTL}, @{GTL}: @{pag}, ed. @{ENC}
!!!pag: pp. 6v-7r
